build/img/svg/liga-a-logo.svg

<svg width="801" height="100" viewBox="0 0 801 100" fill="none" xmlns="http://www.w3.org/2000/svg">
<path d="M155.228 1.6084L126.444 51.3053L122.076 60.7618L123.069 52.3113L122.871 1.6084H100.836V99.3925H101.034H121.084L150.066 48.6897L154.037 39.8368L153.242 47.6836L153.441 99.3925H175.476L175.277 1.6084H155.228Z" fill="black"/>
<path d="M44.0691 1.60938H33.3496L0 99.3935H22.2331L43.4736 29.5764L64.7141 99.3935H87.9398L54.5902 1.60938H44.0691Z" fill="black"/>
<path d="M262.031 1.6084H199.5V23.9418V99.3925H221.535V23.9418H262.031V1.6084Z" fill="black"/>
<path d="M323.772 99.3925H346.998L313.648 1.6084H302.929H292.209L258.859 99.1913H281.092L286.651 80.6808H318.015L323.772 99.3925ZM292.606 62.5726L302.73 29.5755L312.656 62.5726H292.606Z" fill="black"/>
<path d="M415.676 98.3926L378.855 73.9759V2.11035H452.694V73.9751L415.676 98.3926Z" fill="#2C39F2" stroke="#2C39F2"/>
<path d="M437.32 57.1417C438.114 57.1417 438.908 57.1417 439.702 56.7393V64.7874C437.717 65.391 435.136 65.9946 432.754 65.9946C428.387 65.9946 425.012 64.385 423.225 61.1658C418.858 64.385 413.895 66.397 407.345 66.1958C399.206 66.1958 392.059 61.367 392.258 52.9165C392.456 42.0516 402.779 38.8323 411.513 38.8323C414.888 38.8323 418.858 39.4359 421.836 40.0396V38.4299C421.836 34.2047 418.461 31.1867 411.513 31.1867C405.558 31.1867 400.198 32.5951 396.03 34.2047V23.541C399.603 22.3338 406.352 20.7242 412.903 20.9254C426.005 21.1266 434.342 26.3578 434.143 40.442L433.945 54.1237C434.342 56.5381 435.732 57.1417 437.32 57.1417ZM403.374 52.3129C403.374 55.7333 406.551 58.1477 410.918 58.1477C414.888 58.1477 418.461 57.1417 421.836 54.5261V47.2828C419.652 46.6792 416.476 46.0756 413.697 46.0756C408.337 46.0756 403.374 47.6852 403.374 52.3129Z" fill="white"/>
<path d="M506.005 36.6188H503.821C501.241 36.6188 499.057 36.2164 497.072 35.4115C495.087 34.6067 493.3 33.3995 491.911 32.1923C490.521 30.9851 489.529 29.1743 488.735 27.1623C487.941 25.1502 487.742 23.1382 487.742 20.925C487.742 18.7118 488.139 16.4986 488.933 14.6877C489.727 12.8769 490.72 11.0661 492.109 9.65769C493.499 8.24928 495.286 7.24327 497.271 6.43846C499.256 5.63365 501.638 5.23125 504.02 5.23125H506.204V0H509.578V5.03005H511.762C514.342 5.03005 516.526 5.43245 518.511 6.23726C520.496 7.04207 522.283 8.24928 523.672 9.45649C525.062 10.6637 526.055 12.4745 526.849 14.4865C527.643 16.4986 528.04 18.5106 528.04 20.7238C528.04 22.937 527.643 25.1502 526.849 26.9611C526.055 28.7719 525.062 30.5827 523.672 31.9911C522.283 33.3995 520.695 34.4055 518.511 35.2103C516.526 36.0151 514.144 36.4176 511.762 36.4176H509.578V41.4476H506.204V36.6188H506.005ZM506.005 33.8019V7.64567H503.821C501.836 7.64567 500.05 8.04808 498.462 8.65168C496.874 9.25529 495.683 10.0601 494.492 11.0661C493.3 12.0721 492.506 13.2793 491.911 14.6877C491.315 16.0962 491.117 17.5046 491.117 18.913V22.3334C491.117 23.7418 491.315 25.1502 491.911 26.5587C492.506 27.9671 493.3 29.1743 494.492 30.1803C495.683 31.1863 496.874 31.9911 498.462 32.5947C500.05 33.1983 501.836 33.6007 503.821 33.6007H506.005V33.8019ZM511.563 33.8019C513.548 33.8019 515.137 33.3995 516.725 32.7959C518.313 32.1923 519.702 31.3875 520.695 30.3815C521.687 29.3755 522.68 28.1683 523.275 26.7599C523.871 25.3514 524.069 23.943 524.069 22.5346V19.1142C524.069 17.7058 523.871 16.2974 523.275 14.8889C522.68 13.4805 521.886 12.2733 520.695 11.2673C519.504 10.2613 518.313 9.45649 516.725 8.85289C515.137 8.24928 513.35 7.84688 511.563 7.84688H509.38V34.0031H511.563V33.8019Z" fill="black"/>
<path d="M538.957 40.04V1.40918H554.242C557.617 1.40918 560.198 2.41519 561.984 4.22601C563.771 6.23803 564.565 8.85365 564.565 12.0729C564.565 15.4933 563.771 18.1089 561.984 19.9198C560.198 21.9318 557.617 22.7366 554.242 22.7366H542.332V39.6375H538.957V40.04ZM542.332 20.121H554.242C556.426 20.121 558.212 19.5174 559.404 18.3101C560.595 17.1029 561.19 15.4933 561.19 13.6825V10.8657C561.19 9.05485 560.595 7.44524 559.404 6.23803C558.212 5.03081 556.624 4.42721 554.242 4.42721H542.332V20.121Z" fill="black"/>
<path d="M588.982 40.6446C584.02 40.6446 580.248 39.035 577.27 35.6146C574.491 32.1941 573.102 27.3653 573.102 20.7256C573.102 14.086 574.491 9.25712 577.27 5.83669C580.049 2.41626 584.02 0.806641 588.982 0.806641C593.945 0.806641 597.717 2.41626 600.496 5.83669C603.275 9.25712 604.665 14.086 604.665 20.7256C604.665 27.1641 603.275 32.1941 600.496 35.6146C597.717 39.035 593.945 40.6446 588.982 40.6446ZM588.982 37.8278C590.769 37.8278 592.556 37.4254 593.945 36.8218C595.533 36.2182 596.724 35.2122 597.717 34.005C598.709 32.7977 599.702 31.1881 600.297 29.3773C600.893 27.5665 601.091 25.5545 601.091 23.1401V18.3112C601.091 16.098 600.893 13.8848 600.297 12.0739C599.702 10.2631 598.908 8.65352 597.717 7.4463C596.724 6.23909 595.335 5.23308 593.945 4.62948C592.556 4.02587 590.769 3.62347 588.982 3.62347C587.196 3.62347 585.409 4.02587 584.02 4.62948C582.432 5.23308 581.24 6.23909 580.049 7.4463C578.858 8.65352 578.064 10.2631 577.469 12.0739C576.873 13.8848 576.675 15.8968 576.675 18.3112V23.1401C576.675 25.3533 576.873 27.5665 577.469 29.3773C578.064 31.1881 578.858 32.7977 580.049 34.005C581.042 35.2122 582.432 36.2182 584.02 36.8218C585.409 37.4254 587.196 37.8278 588.982 37.8278Z" fill="black"/>
<path d="M640.998 21.9318H619.758V40.04H616.383V1.40918H619.758V18.9137H640.998V1.40918H644.373V40.04H640.998V21.9318Z" fill="black"/>
<path d="M670.172 4.42721V40.04H666.798V4.42721H653.895V1.40918H683.075V4.42721H670.172Z" fill="black"/>
<path d="M692.398 40.04V1.40918H715.029V4.42721H695.773V18.9137H714.036V21.9318H695.773V37.0219H715.029V40.04H692.398Z" fill="black"/>
<path d="M751.564 21.9318H730.324V40.04H726.949V1.40918H730.324V18.9137H751.564V1.40918H754.939V40.04H751.564V21.9318Z" fill="black"/>
<path d="M763.676 37.0219H767.646C769.433 34.6075 770.624 31.3883 771.616 27.3642C772.609 23.3402 773.006 18.3101 773.006 12.2741V1.40918H794.842V37.0219H800.003V48.2892H796.827V40.0399H766.852V48.2892H763.676V37.0219ZM791.467 37.0219V4.42721H776.182V12.6765C776.182 18.7125 775.785 23.7426 774.991 27.7666C774.197 31.7907 773.006 34.8087 771.616 37.0219V37.2231H791.467V37.0219Z" fill="black"/>
<path d="M517.317 99.3954L513.149 87.3233H496.672L492.504 99.3954H489.129L502.826 60.7646H506.995L520.692 99.3954H517.317ZM504.811 63.9839H504.613L497.466 84.5065H512.156L504.811 63.9839Z" fill="black"/>
<path d="M531.217 96.3774H536.577L538.761 90.9449L524.27 60.7646H527.843L537.57 81.086L540.15 86.7197H540.349L542.532 80.8848L550.671 60.7646H554.046L539.952 95.975C539.356 97.3834 538.761 98.1882 537.967 98.7918C537.173 99.1942 536.18 99.3954 534.791 99.3954H531.217V96.3774Z" fill="black"/>
<path d="M576.075 63.7827V99.3954H572.7V63.7827H559.797V60.7646H588.978V63.7827H576.075Z" fill="black"/>
<path d="M610.618 100C605.854 100 602.082 98.3905 599.501 94.9701C596.921 91.5496 595.531 86.7208 595.531 80.0811C595.531 73.6427 596.921 68.6126 599.501 65.1922C602.082 61.7718 605.854 59.9609 610.618 59.9609C613.794 59.9609 616.375 60.7657 618.558 62.1742C620.742 63.5826 622.33 65.5946 623.521 68.2102L620.742 69.8198C619.948 67.8078 618.558 65.997 616.97 64.7898C615.184 63.5826 613.199 62.979 610.817 62.979C607.243 62.979 604.464 64.1862 602.281 66.8018C600.295 69.4174 599.303 73.0391 599.303 77.8679V82.4956C599.303 87.3244 600.295 90.946 602.281 93.3605C604.266 95.7749 607.045 97.1833 610.817 97.1833C613.397 97.1833 615.581 96.5797 617.367 95.1713C619.154 93.9641 620.345 92.1533 621.338 89.94L624.117 91.5496C622.926 94.1653 621.337 96.3785 619.154 97.7869C616.375 99.1953 613.794 100 610.618 100Z" fill="black"/>
<path d="M647.537 100C642.574 100 638.803 98.3905 635.825 94.97C633.046 91.5496 631.656 86.7208 631.656 80.0811C631.656 73.4414 633.046 68.6126 635.825 65.1922C638.604 61.7717 642.574 60.1621 647.537 60.1621C652.5 60.1621 656.271 61.7717 659.051 65.1922C661.83 68.6126 663.219 73.4414 663.219 80.0811C663.219 86.5196 661.83 91.5496 659.051 94.97C656.271 98.3905 652.5 100 647.537 100ZM647.537 97.1833C649.324 97.1833 651.11 96.7809 652.5 96.1773C654.088 95.5737 655.279 94.5676 656.271 93.3604C657.264 92.1532 658.257 90.5436 658.852 88.7328C659.448 86.922 659.646 84.9099 659.646 82.4955V77.6667C659.646 75.4535 659.448 73.2402 658.852 71.4294C658.257 69.6186 657.462 68.009 656.271 66.8018C655.279 65.5946 653.889 64.5886 652.5 63.9849C651.11 63.3813 649.324 62.9789 647.537 62.9789C645.75 62.9789 643.964 63.3813 642.574 63.9849C640.986 64.5886 639.795 65.5946 638.604 66.8018C637.413 68.009 636.619 69.6186 636.023 71.4294C635.428 73.2402 635.229 75.2523 635.229 77.6667V82.4955C635.229 84.7087 635.428 86.922 636.023 88.7328C636.619 90.5436 637.413 92.1532 638.604 93.3604C639.597 94.5676 640.986 95.5737 642.574 96.1773C643.964 96.7809 645.75 97.1833 647.537 97.1833Z" fill="black"/>
<path d="M675.133 99.3954V60.7646H690.418C693.793 60.7646 696.373 61.7707 698.16 63.5815C699.947 65.5935 700.741 68.2091 700.741 71.4283C700.741 74.8488 699.947 77.4644 698.16 79.2752C696.373 81.2872 693.793 82.092 690.418 82.092H678.507V98.993H675.133V99.3954ZM678.507 79.4764H690.418C692.602 79.4764 694.388 78.8728 695.579 77.6656C696.77 76.4584 697.366 74.8488 697.366 73.038V70.4223C697.366 68.6115 696.77 67.0019 695.579 65.7947C694.388 64.5875 692.8 63.9839 690.418 63.9839H678.507V79.4764Z" fill="black"/>
<path d="M724.36 100C719.596 100 715.824 98.3905 713.244 94.9701C710.663 91.5496 709.273 86.7208 709.273 80.0811C709.273 73.6427 710.663 68.6126 713.244 65.1922C715.824 61.7718 719.596 59.9609 724.36 59.9609C727.536 59.9609 730.117 60.7657 732.301 62.1742C734.484 63.5826 736.072 65.5946 737.263 68.2102L734.484 69.8198C733.69 67.8078 732.301 65.997 730.713 64.7898C728.926 63.5826 726.941 62.979 724.559 62.979C720.986 62.979 718.206 64.1862 716.023 66.8018C714.038 69.4174 713.045 73.0391 713.045 77.8679V82.4956C713.045 87.3244 714.038 90.946 716.023 93.3605C718.008 95.7749 720.787 97.1833 724.559 97.1833C727.139 97.1833 729.323 96.5797 731.109 95.1713C732.896 93.9641 734.087 92.1533 735.08 89.94L737.859 91.5496C736.668 94.1653 735.08 96.3785 732.896 97.7869C730.117 99.1953 727.338 100 724.36 100Z" fill="black"/>
</svg>

<svg width="801" height="100" fill="none" xmlns="http://www.w3.org/2000/svg"><path d="M155.228 1.608l-28.784 49.697-4.368 9.457.993-8.45-.198-50.704h-22.035v97.784h20.248l28.982-50.702 3.971-8.853-.795 7.847.199 51.709h22.035l-.199-97.785h-20.049zM44.07 1.61H33.35L0 99.393h22.233l21.24-69.818 21.241 69.817H87.94L54.59 1.61H44.07zM262.031 1.608H199.5v97.784h22.035v-75.45h40.496V1.608zM323.772 99.392h23.226l-33.35-97.784h-21.439l-33.35 97.583h22.233l5.559-18.51h31.364l5.757 18.712zm-31.166-36.82l10.124-32.997 9.926 32.998h-20.05z" fill="#000"/><path d="M415.676 98.393l-36.821-24.417V2.11h73.839v71.865l-37.018 24.418z" fill="#2C39F2" stroke="#2C39F2"/><path d="M437.32 57.142c.794 0 1.588 0 2.382-.403v8.048c-1.985.604-4.566 1.208-6.948 1.208-4.367 0-7.742-1.61-9.529-4.83-4.367 3.22-9.33 5.232-15.88 5.03-8.139 0-15.286-4.828-15.087-13.278.198-10.865 10.521-14.085 19.255-14.085 3.375 0 7.345.604 10.323 1.208v-1.61c0-4.225-3.375-7.243-10.323-7.243-5.955 0-11.315 1.408-15.483 3.018V23.54c3.573-1.207 10.322-2.817 16.873-2.616 13.102.202 21.439 5.433 21.24 19.517l-.198 13.682c.397 2.414 1.787 3.018 3.375 3.018zm-33.946-4.83c0 3.421 3.177 5.836 7.544 5.836 3.97 0 7.543-1.006 10.918-3.622v-7.243c-2.184-.604-5.36-1.207-8.139-1.207-5.36 0-10.323 1.61-10.323 6.237z" fill="#fff"/><path d="M506.005 36.619h-2.184c-2.58 0-4.764-.403-6.749-1.208-1.985-.804-3.772-2.011-5.161-3.219-1.39-1.207-2.382-3.018-3.176-5.03-.794-2.012-.993-4.024-.993-6.237s.397-4.426 1.191-6.237 1.787-3.622 3.176-5.03c1.39-1.409 3.177-2.415 5.162-3.22 1.985-.804 4.367-1.207 6.749-1.207h2.184V0h3.374v5.03h2.184c2.58 0 4.764.402 6.749 1.207 1.985.805 3.772 2.012 5.161 3.22 1.39 1.207 2.383 3.018 3.177 5.03a16.592 16.592 0 011.191 6.237c0 2.213-.397 4.426-1.191 6.237-.794 1.81-1.787 3.622-3.177 5.03-1.389 1.409-2.977 2.415-5.161 3.22-1.985.804-4.367 1.207-6.749 1.207h-2.184v5.03h-3.374v-4.83h-.199zm0-2.817V7.646h-2.184c-1.985 0-3.771.402-5.359 1.006-1.588.603-2.779 1.408-3.97 2.414-1.192 1.006-1.986 2.213-2.581 3.622-.596 1.408-.794 2.817-.794 4.225v3.42c0 1.409.198 2.817.794 4.226.595 1.408 1.389 2.615 2.581 3.621 1.191 1.006 2.382 1.811 3.97 2.415a14.973 14.973 0 005.359 1.006h2.184v.2zm5.558 0c1.985 0 3.574-.402 5.162-1.006s2.977-1.409 3.97-2.415c.992-1.006 1.985-2.213 2.58-3.621.596-1.409.794-2.817.794-4.225v-3.42c0-1.41-.198-2.818-.794-4.226-.595-1.409-1.389-2.616-2.58-3.622-1.191-1.006-2.382-1.81-3.97-2.414-1.588-.604-3.375-1.006-5.162-1.006h-2.183v26.156h2.183v-.201zM538.957 40.04V1.41h15.285c3.375 0 5.956 1.005 7.742 2.816 1.787 2.012 2.581 4.628 2.581 7.847 0 3.42-.794 6.036-2.581 7.847-1.786 2.012-4.367 2.817-7.742 2.817h-11.91v16.9h-3.375v.403zm3.375-19.919h11.91c2.184 0 3.97-.604 5.162-1.81 1.191-1.208 1.786-2.818 1.786-4.629v-2.816c0-1.811-.595-3.42-1.786-4.628-1.192-1.207-2.78-1.81-5.162-1.81h-11.91V20.12zM588.982 40.645c-4.962 0-8.734-1.61-11.712-5.03-2.779-3.42-4.168-8.25-4.168-14.89 0-6.639 1.389-11.468 4.168-14.888s6.75-5.03 11.712-5.03c4.963 0 8.735 1.61 11.514 5.03s4.169 8.249 4.169 14.889c0 6.438-1.39 11.468-4.169 14.889-2.779 3.42-6.551 5.03-11.514 5.03zm0-2.817c1.787 0 3.574-.403 4.963-1.006 1.588-.604 2.779-1.61 3.772-2.817.992-1.207 1.985-2.817 2.58-4.628.596-1.81.794-3.822.794-6.237v-4.829c0-2.213-.198-4.426-.794-6.237-.595-1.81-1.389-3.42-2.58-4.628-.993-1.207-2.382-2.213-3.772-2.817-1.389-.603-3.176-1.006-4.963-1.006-1.786 0-3.573.403-4.962 1.006-1.588.604-2.78 1.61-3.971 2.817-1.191 1.208-1.985 2.817-2.58 4.628-.596 1.81-.794 3.823-.794 6.237v4.83c0 2.212.198 4.426.794 6.236.595 1.811 1.389 3.42 2.58 4.628.993 1.207 2.383 2.213 3.971 2.817 1.389.603 3.176 1.006 4.962 1.006zM640.998 21.932h-21.24V40.04h-3.375V1.41h3.375v17.504h21.24V1.409h3.375V40.04h-3.375V21.932zM670.172 4.427V40.04h-3.374V4.427h-12.903V1.41h29.18v3.018h-12.903zM692.398 40.04V1.41h22.631v3.017h-19.256v14.487h18.263v3.018h-18.263v15.09h19.256v3.018h-22.631zM751.564 21.932h-21.24V40.04h-3.375V1.41h3.375v17.504h21.24V1.409h3.375V40.04h-3.375V21.932zM763.676 37.022h3.97c1.787-2.414 2.978-5.634 3.97-9.658.993-4.024 1.39-9.054 1.39-15.09V1.41h21.836v35.613h5.161v11.267h-3.176v-8.25h-29.975v8.25h-3.176V37.022zm27.791 0V4.427h-15.285v8.25c0 6.035-.397 11.066-1.191 15.09-.794 4.024-1.985 7.042-3.375 9.255v.201h19.851v-.201zM517.317 99.395l-4.168-12.072h-16.477l-4.168 12.072h-3.375l13.697-38.63h4.169l13.697 38.63h-3.375zm-12.506-35.411h-.198l-7.147 20.523h14.69l-7.345-20.523zM531.217 96.377h5.36l2.184-5.432-14.491-30.18h3.573l9.727 20.321 2.58 5.634h.199l2.183-5.835 8.139-20.12h3.375l-14.094 35.21c-.596 1.408-1.191 2.213-1.985 2.817-.794.402-1.787.603-3.176.603h-3.574v-3.018zM576.075 63.783v35.612H572.7V63.783h-12.903v-3.018h29.181v3.018h-12.903zM610.618 100c-4.764 0-8.536-1.61-11.117-5.03-2.58-3.42-3.97-8.25-3.97-14.889 0-6.438 1.39-11.468 3.97-14.889 2.581-3.42 6.353-5.231 11.117-5.231 3.176 0 5.757.805 7.94 2.213 2.184 1.409 3.772 3.42 4.963 6.036l-2.779 1.61c-.794-2.012-2.184-3.823-3.772-5.03-1.786-1.207-3.771-1.811-6.153-1.811-3.574 0-6.353 1.207-8.536 3.823-1.986 2.615-2.978 6.237-2.978 11.066v4.628c0 4.828.992 8.45 2.978 10.865 1.985 2.414 4.764 3.822 8.536 3.822 2.58 0 4.764-.603 6.55-2.012 1.787-1.207 2.978-3.018 3.971-5.231l2.779 1.61c-1.191 2.615-2.78 4.829-4.963 6.237-2.779 1.408-5.36 2.213-8.536 2.213zM647.537 100c-4.963 0-8.734-1.61-11.712-5.03-2.779-3.42-4.169-8.25-4.169-14.889 0-6.64 1.39-11.468 4.169-14.889 2.779-3.42 6.749-5.03 11.712-5.03s8.734 1.61 11.514 5.03c2.779 3.42 4.168 8.25 4.168 14.89 0 6.438-1.389 11.468-4.168 14.888-2.78 3.42-6.551 5.03-11.514 5.03zm0-2.817c1.787 0 3.573-.402 4.963-1.006 1.588-.603 2.779-1.61 3.771-2.817.993-1.207 1.986-2.816 2.581-4.627.596-1.811.794-3.823.794-6.237v-4.83c0-2.212-.198-4.426-.794-6.237-.595-1.81-1.39-3.42-2.581-4.627-.992-1.207-2.382-2.213-3.771-2.817-1.39-.604-3.176-1.006-4.963-1.006s-3.573.402-4.963 1.006c-1.588.604-2.779 1.61-3.97 2.817-1.191 1.207-1.985 2.817-2.581 4.627-.595 1.811-.794 3.823-.794 6.238v4.829c0 2.213.199 4.426.794 6.237.596 1.81 1.39 3.42 2.581 4.627.993 1.208 2.382 2.214 3.97 2.817 1.39.604 3.176 1.006 4.963 1.006zM675.133 99.395v-38.63h15.285c3.375 0 5.955 1.006 7.742 2.816 1.787 2.013 2.581 4.628 2.581 7.847 0 3.42-.794 6.036-2.581 7.847-1.787 2.012-4.367 2.817-7.742 2.817h-11.911v16.901h-3.374v.402zm3.374-19.919h11.911c2.184 0 3.97-.603 5.161-1.81 1.191-1.208 1.787-2.817 1.787-4.628v-2.616c0-1.81-.596-3.42-1.787-4.627-1.191-1.207-2.779-1.811-5.161-1.811h-11.911v15.492zM724.36 100c-4.764 0-8.536-1.61-11.116-5.03-2.581-3.42-3.971-8.25-3.971-14.889 0-6.438 1.39-11.468 3.971-14.889 2.58-3.42 6.352-5.231 11.116-5.231 3.176 0 5.757.805 7.941 2.213 2.183 1.409 3.771 3.42 4.962 6.036l-2.779 1.61c-.794-2.012-2.183-3.823-3.771-5.03-1.787-1.207-3.772-1.811-6.154-1.811-3.573 0-6.353 1.207-8.536 3.823-1.985 2.615-2.978 6.237-2.978 11.066v4.628c0 4.828.993 8.45 2.978 10.865 1.985 2.414 4.764 3.822 8.536 3.822 2.58 0 4.764-.603 6.55-2.012 1.787-1.207 2.978-3.018 3.971-5.231l2.779 1.61c-1.191 2.615-2.779 4.829-4.963 6.237-2.779 1.408-5.558 2.213-8.536 2.213z" fill="#000"/></svg>
